48x48/apps/echomixer.svg

<svg xmlns="http://www.w3.org/2000/svg" width="48" height="48" version="1.1">
 <rect style="opacity:.2" width="40" height="40" x="4" y="5" rx="2" ry="2"/>
 <rect style="fill:#e64031" width="40" height="40" x="4" y="4" rx="2" ry="2"/>
 <path style="fill:#f4f4f7;opacity:0.2" d="m6 4c-1.108 0-2 0.892-2 2v1c0-1.108 0.892-2 2-2h36c1.108 0 2 0.892 2 2v-1c0-1.108-0.892-2-2-2h-36z"/>
 <path style="opacity:0.2" d="m 7,20 v 10 h 6 V 28 H 9 v -2 h 4 V 24 H 9 v -2 h 4 v -2 z m 12.003906,0 c -0.906423,0 -1.658925,0.207767 -2.257812,0.625 -0.590794,0.417233 -1.030915,0.998424 -1.322266,1.742188 -0.291351,0.743763 -0.4375,1.615549 -0.4375,2.613281 0,1.006802 0.146149,1.885837 0.4375,2.638672 0.291351,0.752834 0.731472,1.338626 1.322266,1.755859 0.598887,0.417233 1.347763,0.625 2.246094,0.625 0.874051,0 1.606471,-0.207767 2.197265,-0.625 0.162014,-0.114418 0.311005,-0.243764 0.451172,-0.382812 L 20.277344,27.496094 C 19.963772,27.827838 19.537665,28 18.990234,28 18.302245,28 17.79675,27.734044 17.472656,27.201172 17.148563,26.661379 16.986328,25.92449 16.986328,24.990234 c 0,-0.934256 0.162235,-1.665455 0.486328,-2.191406 C 17.802436,22.265956 18.312011,22 19,22 c 0.542943,0 0.965042,0.172162 1.277344,0.503906 l 1.365234,-1.5 C 21.501863,20.86522 21.352218,20.73745 21.189453,20.625 20.598659,20.207767 19.869865,20 19.003906,20 Z M 24,20 v 10 h 2 v -4 h 3 v 4 h 2 V 20 h -2 v 4 h -3 v -4 z m 13.017578,0 c -0.906423,0 -1.658925,0.207767 -2.257812,0.625 -0.590794,0.417233 -1.030915,0.998424 -1.322266,1.742188 C 33.146149,23.110952 33,23.982737 33,24.980469 c 0,1.006802 0.146149,1.885837 0.4375,2.638672 0.291351,0.752834 0.731472,1.338626 1.322266,1.755859 0.598887,0.417233 1.347763,0.625 2.246093,0.625 0.874052,0 1.606472,-0.207767 2.197266,-0.625 0.590794,-0.417233 1.036493,-0.998422 1.335937,-1.742188 C 40.846598,26.879978 41,26.000943 41,24.994141 41,23.987338 40.846598,23.110952 40.539062,22.367188 40.239618,21.614353 39.793919,21.033163 39.203125,20.625 38.612331,20.207767 37.883537,20 37.017578,20 Z m -0.0039,2 c 0.687989,0 1.189404,0.265956 1.507812,0.798828 C 38.839886,23.324779 39,24.055978 39,24.990234 39,25.92449 38.839892,26.661379 38.521484,27.201172 38.203076,27.734044 37.697581,28 37.003906,28 36.315917,28 35.810422,27.734044 35.486328,27.201172 35.162235,26.661379 35,25.92449 35,24.990234 35,24.055978 35.162235,23.324779 35.486328,22.798828 35.816108,22.265956 36.325683,22 37.013672,22 Z"/>
 <path style="fill:#f4f4f7" d="M 7 19 L 7 29 L 13 29 L 13 27 L 9 27 L 9 25 L 13 25 L 13 23 L 9 23 L 9 21 L 13 21 L 13 19 L 7 19 z M 19.003906 19 C 18.097483 19 17.344981 19.207767 16.746094 19.625 C 16.1553 20.042233 15.715179 20.623424 15.423828 21.367188 C 15.132477 22.110951 14.986328 22.982737 14.986328 23.980469 C 14.986328 24.987271 15.132477 25.866306 15.423828 26.619141 C 15.715179 27.371975 16.1553 27.957767 16.746094 28.375 C 17.344981 28.792233 18.093857 29 18.992188 29 C 19.866239 29 20.598659 28.792233 21.189453 28.375 C 21.351467 28.260582 21.500458 28.131236 21.640625 27.992188 L 20.277344 26.496094 C 19.963772 26.827838 19.537665 27 18.990234 27 C 18.302245 27 17.79675 26.734044 17.472656 26.201172 C 17.148563 25.661379 16.986328 24.92449 16.986328 23.990234 C 16.986328 23.055978 17.148563 22.324779 17.472656 21.798828 C 17.802436 21.265956 18.312011 21 19 21 C 19.542943 21 19.965042 21.172162 20.277344 21.503906 L 21.642578 20.003906 C 21.501863 19.86522 21.352218 19.73745 21.189453 19.625 C 20.598659 19.207767 19.869865 19 19.003906 19 z M 24 19 L 24 29 L 26 29 L 26 25 L 29 25 L 29 29 L 31 29 L 31 19 L 29 19 L 29 23 L 26 23 L 26 19 L 24 19 z M 37.017578 19 C 36.111155 19 35.358653 19.207767 34.759766 19.625 C 34.168972 20.042233 33.728851 20.623424 33.4375 21.367188 C 33.146149 22.110952 33 22.982737 33 23.980469 C 33 24.987271 33.146149 25.866306 33.4375 26.619141 C 33.728851 27.371975 34.168972 27.957767 34.759766 28.375 C 35.358653 28.792233 36.107529 29 37.005859 29 C 37.879911 29 38.612331 28.792233 39.203125 28.375 C 39.793919 27.957767 40.239618 27.376578 40.539062 26.632812 C 40.846598 25.879978 41 25.000943 41 23.994141 C 41 22.987338 40.846598 22.110952 40.539062 21.367188 C 40.239618 20.614353 39.793919 20.033163 39.203125 19.625 C 38.612331 19.207767 37.883537 19 37.017578 19 z M 37.013672 21 C 37.701661 21 38.203076 21.265956 38.521484 21.798828 C 38.839886 22.324779 39 23.055978 39 23.990234 C 39 24.92449 38.839892 25.661379 38.521484 26.201172 C 38.203076 26.734044 37.697581 27 37.003906 27 C 36.315917 27 35.810422 26.734044 35.486328 26.201172 C 35.162235 25.661379 35 24.92449 35 23.990234 C 35 23.055978 35.162235 22.324779 35.486328 21.798828 C 35.816108 21.265956 36.325683 21 37.013672 21 z"/>
</svg>

<svg xmlns="http://www.w3.org/2000/svg" width="48" height="48"><rect style="opacity:.2" width="40" height="40" x="4" y="5" rx="2" ry="2"/><rect style="fill:#e64031" width="40" height="40" x="4" y="4" rx="2" ry="2"/><path style="fill:#f4f4f7;opacity:.2" d="M6 4c-1.108 0-2 .892-2 2v1c0-1.108.892-2 2-2h36c1.108 0 2 .892 2 2V6c0-1.108-.892-2-2-2H6z"/><path style="opacity:.2" d="M7 20v10h6v-2H9v-2h4v-2H9v-2h4v-2zm12.004 0c-.907 0-1.659.208-2.258.625-.59.417-1.03.998-1.322 1.742-.292.744-.438 1.616-.438 2.613 0 1.007.146 1.886.438 2.64.291.752.731 1.338 1.322 1.755.599.417 1.348.625 2.246.625.874 0 1.607-.208 2.197-.625.162-.114.311-.244.452-.383l-1.364-1.496c-.313.332-.74.504-1.287.504-.688 0-1.193-.266-1.517-.799-.324-.54-.487-1.277-.487-2.21 0-.935.163-1.666.487-2.192.33-.533.839-.799 1.527-.799.543 0 .965.172 1.277.504l1.366-1.5a3.4 3.4 0 0 0-.454-.379c-.59-.417-1.32-.625-2.185-.625zM24 20v10h2v-4h3v4h2V20h-2v4h-3v-4zm13.018 0c-.907 0-1.66.208-2.258.625-.591.417-1.031.998-1.322 1.742-.292.744-.438 1.616-.438 2.613 0 1.007.146 1.886.438 2.64.29.752.731 1.338 1.322 1.755.599.417 1.348.625 2.246.625.874 0 1.606-.208 2.197-.625.59-.417 1.037-.998 1.336-1.742.308-.753.461-1.632.461-2.639s-.153-1.883-.46-2.627c-.3-.753-.746-1.334-1.337-1.742-.59-.417-1.32-.625-2.185-.625zm-.004 2c.688 0 1.19.266 1.507.799.319.526.479 1.257.479 2.191 0 .934-.16 1.671-.479 2.211-.318.533-.823.799-1.517.799-.688 0-1.194-.266-1.518-.799-.324-.54-.486-1.277-.486-2.21 0-.935.162-1.666.486-2.192.33-.533.84-.799 1.528-.799z"/><path style="fill:#f4f4f7" d="M7 19v10h6v-2H9v-2h4v-2H9v-2h4v-2H7zm12.004 0c-.907 0-1.659.208-2.258.625-.59.417-1.03.998-1.322 1.742-.292.744-.438 1.616-.438 2.613 0 1.007.146 1.886.438 2.64.291.752.731 1.338 1.322 1.755.599.417 1.348.625 2.246.625.874 0 1.607-.208 2.197-.625.162-.114.311-.244.452-.383l-1.364-1.496c-.313.332-.74.504-1.287.504-.688 0-1.193-.266-1.517-.799-.324-.54-.487-1.277-.487-2.21 0-.935.163-1.666.487-2.192.33-.533.839-.799 1.527-.799.543 0 .965.172 1.277.504l1.366-1.5a3.4 3.4 0 0 0-.454-.379c-.59-.417-1.32-.625-2.185-.625zM24 19v10h2v-4h3v4h2V19h-2v4h-3v-4h-2zm13.018 0c-.907 0-1.66.208-2.258.625-.591.417-1.031.998-1.322 1.742-.292.744-.438 1.616-.438 2.613 0 1.007.146 1.886.438 2.64.29.752.731 1.338 1.322 1.755.599.417 1.348.625 2.246.625.874 0 1.606-.208 2.197-.625.59-.417 1.037-.998 1.336-1.742.308-.753.461-1.632.461-2.639s-.153-1.883-.46-2.627c-.3-.753-.746-1.334-1.337-1.742-.59-.417-1.32-.625-2.185-.625zm-.004 2c.688 0 1.19.266 1.507.799.319.526.479 1.257.479 2.191 0 .934-.16 1.671-.479 2.211-.318.533-.823.799-1.517.799-.688 0-1.194-.266-1.518-.799-.324-.54-.486-1.277-.486-2.21 0-.935.162-1.666.486-2.192.33-.533.84-.799 1.528-.799z"/></svg>
